icons/desktop/16/svg/shield-cross-16.svg

<svg width="16" height="16" viewBox="0 0 16 16" fill="none" xmlns="http://www.w3.org/2000/svg">
<path d="M9.22025 6.22018C9.51314 5.92731 9.98791 5.9273 10.2808 6.22018C10.5732 6.51311 10.5735 6.98799 10.2808 7.28073L9.06107 8.50046L10.2808 9.72018C10.5732 10.0131 10.5735 10.488 10.2808 10.7807C9.98806 11.0735 9.51318 11.0732 9.22025 10.7807L8.00052 9.561L6.7808 10.7807C6.48806 11.0735 6.01318 11.0732 5.72025 10.7807C5.42736 10.4878 5.42736 10.0131 5.72025 9.72018L6.93998 8.50046L5.72025 7.28073C5.42736 6.98784 5.42736 6.51308 5.72025 6.22018C6.01314 5.92731 6.48791 5.9273 6.7808 6.22018L8.00052 7.43991L9.22025 6.22018Z" fill="black"/>
<path fill-rule="evenodd" clip-rule="evenodd" d="M6.61283 1.36081C7.52869 0.844259 8.65951 0.875295 9.5474 1.48483L9.94974 1.75339C10.2249 1.93285 10.5148 2.11295 10.8199 2.2905L11.2886 2.55515L11.7906 2.82077C12.2875 3.07523 12.7685 3.29615 13.2271 3.48679L13.4458 3.58932C14.4355 4.10806 14.9962 5.17995 14.8882 6.28073L14.854 6.51706L14.4107 8.9028C14.2207 9.92999 13.869 10.9639 13.272 11.8696H13.2701C12.2475 13.4205 10.8746 14.738 9.37943 15.6235C8.51948 16.1328 7.44807 16.1165 6.60111 15.6128C5.11447 14.7282 3.75027 13.4182 2.73197 11.8755C2.1325 10.966 1.78119 9.92567 1.59134 8.89401L1.14506 6.47018C0.92973 5.30182 1.48173 4.09805 2.54349 3.53952L2.76322 3.436C3.26225 3.22847 3.78403 2.98947 4.32181 2.71237L4.32279 2.7114C5.10496 2.30966 5.80957 1.88687 6.43216 1.47214L6.61283 1.36081ZM8.69779 2.72018C8.32117 2.46216 7.84697 2.42847 7.43607 2.62253L7.2642 2.72018C6.59897 3.16332 5.84491 3.61621 5.00736 4.04636L5.00638 4.04538C4.43094 4.34183 3.87369 4.59954 3.33939 4.82175C2.82164 5.03702 2.51252 5.61024 2.62064 6.19772L3.06693 8.62253C3.23109 9.51459 3.52358 10.3509 3.98392 11.0493C4.88354 12.4122 6.08556 13.5603 7.36869 14.3237C7.75567 14.5537 8.23884 14.5551 8.61478 14.3325C9.90522 13.5682 11.1157 12.4139 12.0191 11.0434C12.4779 10.3473 12.7711 9.51594 12.9351 8.62936L12.9361 8.62839L13.3794 6.24265C13.4806 5.69693 13.2176 5.16279 12.7476 4.91647L12.6509 4.87155C11.9922 4.5977 11.2931 4.26681 10.5689 3.87057C9.88107 3.49455 9.25724 3.10455 8.69779 2.72018Z" fill="black"/>
</svg>

<!-- This Source Code Form is subject to the terms of the Mozilla Public
   - License, v. 2.0. If a copy of the MPL was not distributed with this
   - file, You can obtain one at http://mozilla.org/MPL/2.0/. -->
<svg xmlns="http://www.w3.org/2000/svg" width="16" height="16" fill="context-fill" fill-opacity="context-fill-opacity" viewBox="0 0 16 16">
    <path d="M9.22 6.22a.75.75 0 1 1 1.06 1.06L9.062 8.5l1.22 1.22a.75.75 0 0 1-1.06 1.06L8 9.562l-1.22 1.22a.75.75 0 0 1-1.06-1.06L6.94 8.5 5.72 7.28a.75.75 0 1 1 1.06-1.06L8 7.44z" />
    <path fill-rule="evenodd" d="M6.613 1.36a2.76 2.76 0 0 1 2.934.125l.403.268q.412.27.87.538l.469.264.502.266q.746.38 1.436.666l.219.102c.99.52 1.55 1.59 1.442 2.692l-.034.236-.443 2.386c-.19 1.027-.542 2.06-1.139 2.967h-.002c-1.022 1.55-2.395 2.868-3.89 3.754a2.73 2.73 0 0 1-2.779-.011c-1.487-.885-2.85-2.195-3.869-3.737-.6-.91-.95-1.95-1.14-2.982L1.144 6.47c-.215-1.168.337-2.372 1.398-2.93l.22-.104q.751-.31 1.559-.724a22 22 0 0 0 2.11-1.24zm2.085 1.36a1.26 1.26 0 0 0-1.262-.097l-.172.097c-.665.443-1.42.896-2.257 1.326q-.865.444-1.668.776c-.517.215-.826.788-.718 1.376l.446 2.425c.164.892.457 1.728.917 2.426.9 1.363 2.102 2.511 3.385 3.275.387.23.87.231 1.246.008 1.29-.764 2.5-1.918 3.404-3.289.459-.696.752-1.527.916-2.414h.001l.443-2.386a1.24 1.24 0 0 0-.631-1.327l-.097-.044A21.7 21.7 0 0 1 8.698 2.72" clip-rule="evenodd" />
</svg>
